!!!!SEGMENT: pl-kk--kk-i-513--005_haser-august-ferdinand--miserere-tibi-soli-pecavi.krn
!!!cenid: 17xx:1845
!!!COM: Häser, August Ferdinand
!!!COM-rismID: pe37240
!!!CDT: 1779/10/15-1844/11/01
!!!CNT: German
!!!OPR: Miserere
!!!OTL: Tibi soli pecavi
!!!OMV: 005
!!!PDT:
!!!AGN: Sacred
!!!SMS-siglum: PL-Kk
!!!SMS-shelfmark: Kk.I.513
!!!SMS-shelfwork: 001-005 M
!!!SMS-variant:
!!!SMS-altvar:
!!!NIFC-rismSourceID: 1001137722
!!!NIFC-rismChildID: 1001138476
!!!NIFC-islandoraID: pl-kk:14834
!!!URL-pdf-islandora: https://repozytorium.nifc.pl/islandora/object/pl-kk%3A14834/datastream/PDF/view
!!!URL-scan: https://polish.musicsources.pl/pl/lokalizacje/galeria/rekopisy/6123 @EN{Scan on Polish Music Sources Website} @PL{Skany w portalu Dziedzictwo Muzyki Polskiej w otwartym dostępie}
!!!IIIF:
!!!ONB-nifc:
!!!AIN: 1 alto 1 bass 1 organ 1 soprn 1 tenor
!!!key:
**kern	**kern	**kern	**text	**dynam	**kern	**text	**text	**dynam	**kern	**text	**dynam	**kern	**text	**text	**dynam
*part5	*part5	*part4	*part4	*part4	*part3	*text	*text	*part3	*part2	*part2	*part2	*part1	*part1	*part1	*part1
*staff6	*staff5	*staff4	*staff4	*	*staff3	*staff3	*staff3	*	*staff2	*staff2	*	*staff1	*staff1	*staff1	*
*Iorgan	*Iorgan	*Ibass	*	*	*Itenor	*	*	*	*Ialto	*	*	*Isoprn	*	*	*
*I"Organo 1	*I"Organo 1	*I"Basso.	*	*	*I"Tenore.	*	*	*	*I"Alto	*	*	*I"Soprano.	*	*	*
*	*I'org 1	*I'B	*	*	*I'T	*	*	*	*I'A	*	*	*I'S	*	*	*
*group2	*group2	*group1	*	*	*group1	*	*	*	*group1	*	*	*group1	*	*	*
*clefF4	*clefG2	*clefF4	*	*	*clefC4	*	*	*	*clefG2	*	*	*clefG2	*	*	*
*k[]	*k[]	*k[]	*	*	*k[]	*	*	*	*k[]	*	*	*k[]	*	*	*
*a:	*a:	*a:	*	*	*a:	*	*	*	*a:	*	*	*a:	*	*	*
*M3/4	*M3/4	*M3/4	*	*	*M3/4	*	*	*	*M3/4	*	*	*M3/4	*	*	*
=1	=1	=1	=1	=1	=1	=1	=1	=1	=1	=1	=1	=1	=1	=1	=1
*2\right	*2\right	*2\right	*	*	*2\right	*	*	*	*2\right	*	*	*2\right	*	*	*
!	!LO:TX:a:t=No 5.	!LO:TX:a:t=No 5.	!	!	!LO:TX:a:t=No 5.	!	!	!	!LO:TX:a:t=No 5.	!	!	!LO:TX:a:t=No 5.	!	!	!
!	!	!LO:TX:a:t=Soli	!	!	!LO:TX:t=P:global:problem=oznaczenia dynamiczne na pięciolinii	!	!	!	!	!	!	!LO:TX:t=P:problem=4\right&colon; global	!	!	!
!	!LO:TX:t=P:all\right:problem	!LO:TX:a:t=Largo.	!	!	!LO:TX:a:t=Largo	!	!	!LO:DY:b	!LO:TX:a:t=Soli	!	!	!LO:TX:a:t=Soli	!	!	!
!LO:TX:t=P:problem=4\right&colon; global	!	!LO:TX:t=P:problem=4\right&colon; global	!	!	!LO:TX:t=P:problem=4\right&colon; global	!	!	!	!	!	!	!	!	!	!
4.A\ 4.c	4.e/ 4.ee	(4.A\	Ti-	.	(4.c\	Ti-	.	p	(4.e/	Ti-	p	(4.ee\	Ti-	.	.
!LO:TX:t=P:problem=8\right&colon; global	!	!LO:TX:t=P:problem=8\right&colon; global	!	!	!LO:TX:t=P:problem=8\right&colon; global	!	!	!	!	!	!	!LO:TX:t=P:problem=8\right&colon; global	!	!	!
8B\ 8d	8g#X/ 8dd	8B\)	.	.	8d\	.	.	.	8g#X/)	.	.	8dd\)	.	.	.
4c\ 4e	4a/ 4cc	4c\	-bi	.	4e\)	-bi	.	.	4a/	-bi	.	4cc\	-bi	.	.
=2	=2	=2	=2	=2	=2	=2	=2	=2	=2	=2	=2	=2	=2	=2	=2
*^	*^	*	*	*	*	*	*	*	*	*	*	*	*	*	*
!	!	!LO:TX:t=P:problem=4\right&colon; global	!	!	!	!	!	!	!	!	!	!	!	!	!	!	!
2d\ 2f	4ryy	8.b/L	4a\	4d\	so-	.	4f\	so-	.	.	4a/	so-	.	(8.b\L	so-	.	.
!	!	!	!	!	!	!	!	!	!	!	!	!	!	!LO:TX:t=P:problem=32\right&colon; global	!	!	!
.	.	32dd/LL	.	.	.	.	.	.	.	.	.	.	.	32dd\LL	.	.	.
.	.	32cc/JJJ	.	.	.	.	.	.	.	.	.	.	.	32cc\JJJ)	.	.	.
.	4ryy	4b/	4a\	4d\	-li	.	4f\	-li	.	.	4a/	-li	.	4b\	-li	.	.
!LO:TX:t=P:problem=16\right&colon; global	!	!LO:TX:t=P:problem=8\right&colon; global	!	!LO:TX:t=P:problem=16\right&colon; global	!	!	!	!	!	!	!	!	!	!	!	!	!
8f/L	16d\LL	(16b/LL	8a\L	(16d\LL	ti-	.	8f\	ti-	.	.	8a/	ti-	.	(16b\LL	ti-	.	.
.	16B\JJ	16dd/JJ)	.	16B\JJ)	.	.	.	.	.	.	.	.	.	16dd\JJ)	.	.	.
8d/J	16B\LL	(16dd/LL	8b\J	(16B\LL	-bi	.	8d\	-bi	.	.	8b/	-bi	.	(16dd\LL	-bi	.	.
.	16G#X\JJ	16ff/JJ)	.	16G#X\JJ)	.	.	.	.	.	.	.	.	.	16ff\JJ)	.	.	.
=3	=3	=3	=3	=3	=3	=3	=3	=3	=3	=3	=3	=3	=3	=3	=3	=3	=3
4d/	2.G#X\	4ff/	2.b\	4G#X\	so-	.	4d\	so-	.	.	4b/	so-	.	4ff\	so-	.	.
2e/	.	4ee/	.	4G#\	-li	.	4e\	-li	.	.	4b/	-li	.	4ee\	-li	.	.
.	.	4dd/	.	4G#\	pec-	.	4e\	pec-	.	.	4b/	pec-	.	4dd\	pec-	.	.
=4	=4	=4	=4	=4	=4	=4	=4	=4	=4	=4	=4	=4	=4	=4	=4	=4	=4
2e/	2A\	8.dd/L	8.b\L	4A\	-ca-	.	4e\	-ca-	.	.	(8.b/L	-ca-	.	(8.dd\L	-ca-	.	.
!	!	!LO:TX:t=P:problem=16\right&colon; global	!	!	!	!	!	!	!	!	!	!	!	!	!	!	!
.	.	16cc/Jk	16a\Jk	.	.	.	.	.	.	.	16a/Jk)	.	.	16cc\Jk)	.	.	.
.	.	4cc/	2a\	4A\	-vi	.	4e\	-vi	.	.	4a/	-vi	.	4cc\	-vi	.	.
4e/	4c\	4ee/	.	4c\	et	.	4e\	et	.	.	4a/	et	.	4ee\	et	.	.
*v	*v	*	*	*	*	*	*	*	*	*	*	*	*	*	*	*	*
=5	=5	=5	=5	=5	=5	=5	=5	=5	=5	=5	=5	=5	=5	=5	=5	=5
!	!	!	!	!	!LO:DY:a	!	!	!	!LO:DY:a	!	!	!	!	!	!	!
2d\	4ee/	2f\ [2a	2d\	ma-	ff	2f\	ma-	.	f	2a/	ma-	.	(4ee\	ma-	.	.
.	4dd/	.	.	.	.	.	.	.	.	.	.	.	4dd\)	-[[ma]]-	.	.
4D\	4ff/	4a\]	4D/	-lum	.	4B\	-lum	.	.	4a/	-lum	.	4ff\	-lum	.	.
!	!	!	!	!	!	!	!	!	!	!LO:LB:g=original	!	!	!LO:LB:g=original	!	!	!
=6	=6	=6	=6	=6	=6	=6	=6	=6	=6	=6	=6	=6	=6	=6	=6	=6
*^	*	*	*	*	*	*	*	*	*	*	*	*	*	*	*	*
[2B/	2.E\	4ff/	2.g#X\	2E\	ma-	.	2B\	et	.	.	2g#X/	a-	.	(4ff\	ma-	.	.
.	.	4ee/	.	.	.	.	.	.	.	.	.	.	.	4ee\)	.	.	.
8B/L]	.	4dd/	.	4E\	-lum	.	8B\	ma-	.	.	4g#/	-lum	.	4dd\	-lum	.	.
8e/J	.	.	.	.	.	.	8e\	-lum	.	.	.	.	.	.	.	.	.
*v	*v	*	*	*	*	*	*	*	*	*	*	*	*	*	*	*	*
*	*v	*v	*	*	*	*	*	*	*	*	*	*	*	*	*	*
!LO:LB:g=original	!LO:LB:g=original	!LO:LB:g=original	!	!	!LO:LB:g=original	!	!	!	!	!	!	!	!	!	!
=7	=7	=7	=7	=7	=7	=7	=7	=7	=7	=7	=7	=7	=7	=7	=7
!	!	!	!	!LO:DY:a	!	!	!	!LO:DY:a	!	!	!	!	!	!	!
4A\	4e/ 4cc	4A\	co-	p	4e\	co-	.	pp	4a/	co-	.	4cc\	co-	.	.
!	!	!	!	!	!	!	!	!	!	!	!	!LO:TX:t=P:global:problem=oznaczenia dynamiczne na górze pięciolinii	!	!	!LO:DY:a
4D\	4d/ 4f 4b	4D\	-ram	.	4d\	-ram	.	.	4f/	-ram	.	4b/	-ram	.	pp
4D#X\	4c/ 4a	4D#X\	te	.	4c\	te	.	.	4a/	te	.	4a/	te	.	.
=8	=8	=8	=8	=8	=8	=8	=8	=8	=8	=8	=8	=8	=8	=8	=8
*^	*^	*	*	*	*	*	*	*	*	*	*	*	*	*	*
4c/	2E\	4a/	8e\L	4E\	fe-	.	4c\	fe-	.	.	(8e/L	fe-	.	4a/	fe-	.	.
.	.	.	8d#X\J	.	.	.	.	.	.	.	8d#X/J)	.	.	.	.	.	.
4B/	.	4g#X/	4ryy	4E\	-ci	.	4B\	-ci	.	.	4e/	-ci	.	4g#X/	-ci	.	.
4r	4ryy	4r	4ryy	4r	.	.	4r	.	.	.	4r	.	.	4r	.	.	.
*v	*v	*	*	*	*	*	*	*	*	*	*	*	*	*	*	*	*
*	*v	*v	*	*	*	*	*	*	*	*	*	*	*	*	*	*
=9	=9	=9	=9	=9	=9	=9	=9	=9	=9	=9	=9	=9	=9	=9	=9
!	!	!	!	!LO:DY:a	!	!	!	!LO:DY:a	!LO:TX:t=P:global:problem=oznaczenia dynamiczne na pięciolinii	!	!LO:DY:a	!	!	!	!
4.d\ 4.f	4.g#X/ 4.b	(4.d\	ti-	ff	4.f\	ti-	.	ff	4.g#X/	ti-	ff	(4.b\	ti-	.	.
8c\L 8e	8a/L 8cc	8c\)	.	.	8e\	.	.	.	8a/	.	.	8cc\)	.	.	.
!	!	!	!	!	!	!	!	!	!LO:TX:t=P:problem=8\right&colon; global	!	!	!	!	!	!
8B\ 8d	8b/ 8dd	(8B\L	-bi	.	8d\L	-bi	.	.	8b\L	-bi	.	(8dd\L	-bi	.	.
8A\J 8c	8cc/J 8ee	8A\J)	.	.	8c\J	.	.	.	8cc\J	.	.	8ee\J)	.	.	.
=10	=10	=10	=10	=10	=10	=10	=10	=10	=10	=10	=10	=10	=10	=10	=10
!	!	!	!	!	!	!	!	!	!LO:TX:t=P:problem=4\right&colon; global	!	!LO:DY:a	!	!	!	!
4G#X\ 4B	4dd\ 4ff	4G#X\	so-	.	4B\	so-	.	.	4dd\	so-	f	4ff\	so-	.	.
4A\ 4c	4cc\ 4ee	4A\	-li	.	4c\	-li	.	.	4cc\	-li	.	4ee\	-li	.	.
4C\ 4c	8r	4c\	pec-	.	8r	.	.	.	8r	.	.	8r	.	.	.
!	!	!	!	!	!	!	!	!	!	!	!	!	!	!	!LO:DY:a
.	8e/ 8a 8ee	.	.	.	8e\	pec-	.	.	8a/	pec-	.	8ee\	pec-	.	f
!	!	!	!	!	!	!	!	!	!	!	!	!LO:LB:g=original	!	!	!
=11	=11	=11	=11	=11	=11	=11	=11	=11	=11	=11	=11	=11	=11	=11	=11
*	*^	*	*	*	*	*	*	*	*	*	*	*	*	*	*
!	!	!	!	!	!LO:DY:a	!	!	!	!	!	!	!	!	!	!	!
4B\	4ee/	2f#X\ 2a	4B\	-ca-	f	4f#X\	-ca-	.	.	4a/	-ca-	f	4ee\	-ca-	.	.
4B\	4dd#X/	.	4B\	-vi	.	4f#\	-vi	.	.	4a/	-vi	.	4dd#X\	-vi	.	.
!	!	!	!	!	!	!LO:N:vis=4	!	!	!	!	!	!	!	!	!	!
4E\	8r	8ryy	4E/	pec-	.	8r	.	.	.	8r	.	.	8r	.	.	.
.	8e/ 8g#X 8dd#	8ryy	.	.	.	8e\	pec-	.	.	8g#X/	pec-	.	8ddn\	pec-	.	.
!	!	!	!	!	!	!	!	!	!	!LO:LB:g=original	!	!	!	!	!	!
=12	=12	=12	=12	=12	=12	=12	=12	=12	=12	=12	=12	=12	=12	=12	=12	=12
2.AA\ 2.A	4dd/	2.e\ 2.a	4A\	-ca-	.	4e\	-ca-	.	.	4a/	-ca-	.	4dd\	-ca-	.	.
.	4cc#X/	.	4AA/	-vi	.	4e\	-vi	.	.	4a/	-vi	.	4cc#X\	-vi	.	.
.	4ccn/	.	4A\	et	.	4e\	et	.	.	4a/	et	.	4ccn\	et	.	.
!	!	!	!	!	!	!LO:LB:g=original	!	!	!	!	!	!	!	!	!	!
=13	=13	=13	=13	=13	=13	=13	=13	=13	=13	=13	=13	=13	=13	=13	=13	=13
*^	*	*	*	*	*	*	*	*	*	*	*	*	*	*	*	*
2.e/	2G#X\	4r	2b\	2G#X\	ma-	.	2e\	ma-	.	.	2b/	ma-	.	4b/	ma-	.	.
.	.	2ee/	.	.	.	.	.	.	.	.	.	.	.	2ee\	-lum	.	.
.	4Gn\	.	4b-X\	4Gn\	-lum	.	4e\	-lum	.	.	4b-X/	-lum	.	.	.	.	.
!LO:LB:g=original	!	!LO:LB:g=original	!	!LO:LB:g=original	!	!	!	!	!	!	!	!	!	!	!	!	!
=14	=14	=14	=14	=14	=14	=14	=14	=14	=14	=14	=14	=14	=14	=14	=14	=14	=14
4e/	2.Fn\	4.a/	2.a\	2Fn\	co-	.	4e\	co-	.	.	2a/	co-	.	(4.a/	co-	.	.
4d/	.	.	.	.	.	.	4d\	-ram	.	.	.	.	.	.	.	.	.
.	.	8b/L	.	.	.	.	.	.	.	.	.	.	.	8b/)	.	.	.
4A/	.	8cc/	.	8F\	-ram	.	4A\	te	.	.	8a/	-ram	.	8cc\	-ram	.	.
.	.	8dd/J	.	8F\	te	.	.	.	.	.	8a/	te	.	8dd\	te	.	.
*v	*v	*	*	*	*	*	*	*	*	*	*	*	*	*	*	*	*
*	*v	*v	*	*	*	*	*	*	*	*	*	*	*	*	*	*
=15	=15	=15	=15	=15	=15	=15	=15	=15	=15	=15	=15	=15	=15	=15	=15
!	!	!	!	!LO:DY:a	!	!	!	!	!	!	!	!	!	!	!
2.E\ 2.c	2.a/ 2.ee	2.E\	fe-	>]	2.c^\	fe-	.	.	2.a/	fe-	.	[2.ee\	fe-	.	.
=16	=16	=16	=16	=16	=16	=16	=16	=16	=16	=16	=16	=16	=16	=16	=16
!	!	!	!	!LO:DY:a	!	!	!	!	!	!	!	!	!	!	!
2E\ 2B	2g#X/ 2ee	2E\	-ci	p	2B\	-ci.	.	.	2g#X/	-ci.	.	2ee\]	-ci.	.	.
4r;	4r;	4r;	.	.	4r;	.	.	.	4r	.	.	4r;	.	.	.
!	!	!LO:LB:g=original	!	!	!LO:LB:g=original	!	!	!	!LO:LB:g=original	!	!	!LO:LB:g=original	!	!	!
=17||	=17||	=17||	=17||	=17||	=17||	=17||	=17||	=17||	=17||	=17||	=17||	=17||	=17||	=17||	=17||
*M3/4	*M3/4	*M3/4	*	*	*M3/4	*	*	*	*M3/4	*	*	*M3/4	*	*	*
*	*^	*	*	*	*	*	*	*	*	*	*	*	*	*	*
!	!	!	!LO:TX:a:t=Allegro Maestoso Tutti.	!	!	!LO:TX:a:t=tutti	!	!	!	!	!	!	!	!	!	!
!	!	!	!LO:TX:a:t=Tutti	!	!	!LO:TX:a:t=Allegro.\nMaestoso	!	!	!LO:DY:b	!LO:TX:a:t=Allegro Maestoso.	!	!LO:DY:a	!LO:TX:a:t=Allegro Maestoso Tutti.	!	!	!
2C\ 2c	2ee/	2.gn\	4.C/	Ut	.	4.c\	Ut	.	f	4.gn/	Ut	f	4.ee\	Ut	.	.
.	.	.	8C/	ju-	.	8c\	ju-	.	.	8g/	ju-	.	8ee\	ju-	.	.
8D\L 8B	8dd/L	.	8D/	-sti-	.	8B\	-sti-	.	.	8g/	-sti-	.	8dd\	-sti-	.	.
8E\J 8c	8cc/J	.	8E/	-fi-	.	8c\	-fi-	.	.	8g/	-fi-	.	8cc\	-fi-	.	.
=18	=18	=18	=18	=18	=18	=18	=18	=18	=18	=18	=18	=18	=18	=18	=18	=18
*^	*	*	*	*	*	*	*	*	*	*	*	*	*	*	*	*
2F\ 2c	2ryy	8b/L	4ryy	4F\	-ce-	.	4c\	-ce-	.	.	4f/	-ce-	.	(8b/L	-ce-	.	.
.	.	8a/J	.	.	.	.	.	.	.	.	.	.	.	8a/J)	.	.	.
.	.	2a/	2f\	4F\	-ris	.	4c\	-ris	.	.	4f/	-ris	.	4a/	-ris	.	.
4d/	8D\L	.	.	8D/	in	.	8d\	in	.	.	8f/	in	.	8a/	in	.	.
.	8C\J	.	.	8C/	ser-	.	8d\	ser-	.	.	8f/	ser-	.	8a/	ser-	.	.
*v	*v	*	*	*	*	*	*	*	*	*	*	*	*	*	*	*	*
*	*v	*v	*	*	*	*	*	*	*	*	*	*	*	*	*	*
=19	=19	=19	=19	=19	=19	=19	=19	=19	=19	=19	=19	=19	=19	=19	=19
4BB/	[4d/ 4f 4a	4.BB/	-mo-	.	4d\	-mo-	.	.	(4f/	-mo-	.	4a/	-mo-	.	.
2BB\ 2G	4d/_ 4g	.	.	.	4G/	-ni-	.	.	8d/)	.	.	4g/	-ni-	.	.
.	.	8BB/	-ni-	.	.	.	.	.	8d/	-ni-	.	.	.	.	.
.	4d/] 4f	4BB/	-bus	.	4G/	-bus	.	.	4d/	-bus	.	4f/	-bus	.	.
=20	=20	=20	=20	=20	=20	=20	=20	=20	=20	=20	=20	=20	=20	=20	=20
*	*^	*	*	*	*	*	*	*	*	*	*	*	*	*	*
2C\ 2G	4f/	8d\L	4C/	tu-	.	4G/	tu-	.	.	(8d/L	tu-	.	4f/	tu-	.	.
.	.	8B\J	.	.	.	.	.	.	.	8B/J)	.	.	.	.	.	.
!	!	!	!	!	!	!	!	!	!	!	!	!	!LO:TX:a:t=e	!	!	!
.	4c/ 4e	4ryy	4C/	-is	.	4G/	-is	.	.	4c/	-is	.	4e/	-is	.	.
8r	8r	8ryy	8r	.	.	8r	.	.	.	8r	.	.	8r	.	.	.
8c\ 8e	8g/ 8ee	8ryy	8c\	et	.	8e\	et	.	.	8g/	et	.	8ee\	et	.	.
!LO:LB:g=original	!LO:LB:g=original	!	!LO:LB:g=original	!	!	!	!	!	!	!	!	!	!	!	!	!
=21	=21	=21	=21	=21	=21	=21	=21	=21	=21	=21	=21	=21	=21	=21	=21	=21
!	!	!	!	!	!LO:DY:a	!	!	!	!LO:DY:b	!	!	!	!	!	!	!
2.c\ 2.e	4.ee/	4g#X\	4c\	vin-	rfz	4e\	vin-	.	f	4g#X/	vin-	.	4ee\	vin-	.	.
.	.	2a\	8c\	-cas	.	8e\	-cas	.	.	8a/	-cas	.	8ee\	-cas	.	.
.	8r	.	8c\	cum	.	8e\	cum	.	.	8a/	cum	.	8a/	cum	.	.
!	!	!	!	!	!	!LO:LB:g=original	!	!	!	!LO:LB:g=original	!	!	!	!	!	!
.	4r	.	8c\	Ju-	.	8e^<\	ju-	.	.	8a/	ju-	.	8a/	ju-	.	.
.	.	.	8c\	-di-	.	8e\	-di-	.	.	8e/	-di-	.	8a/	-di-	.	.
!	!	!	!	!	!	!	!	!	!	!	!	!	!LO:LB:g=original	!	!	!
=22	=22	=22	=22	=22	=22	=22	=22	=22	=22	=22	=22	=22	=22	=22	=22	=22
*^	*	*	*	*	*	*	*	*	*	*	*	*	*	*	*	*
2d/	2B\	4a/	2e\	4B\	-ca-	.	4d\	-ca-	.	.	4e/	-ca-	.	4a/	-ca-	.	.
.	.	4g#X/	.	4B\	-ris	.	4d\	-ris	.	.	4e/	-ris	.	4g#X/	-ris	.	.
!	!	!	!	!LO:N:vis=4	!	!	!	!	!	!	!	!	!	!	!	!	!
8r	8ryy	8r	8ryy	8r	.	.	8r	.	.	.	8r	.	.	8r	.	.	.
!	!	!	!	!	!	!	!	!	!	!LO:DY:a	!	!	!	!	!	!	!LO:DY:a
8G#X\ 8d	8ryy	8b\ 8ff	8ryy	8G#X\	et	.	8d\	et	.	f	8b\	et	.	8ff\	et	[[ut	f
=23	=23	=23	=23	=23	=23	=23	=23	=23	=23	=23	=23	=23	=23	=23	=23	=23	=23
!	!	!	!	!	!	!	!	!	!	!LO:DY:a	!	!	!LO:DY:a	!	!	!	!
4d/	2.G#X\	4ff/	2.b\	4G#X\	vin-	.	4d\	vin-	.	f ff	4b\	vin-	f	4ff\	vin-	ju-	.
8e/L	.	8ee/L	.	8G#\	-cas,	.	8e\	-cas	.	.	8b\	-cas	.	8ee\	-cas	-sti-	.
!	!	!	!	!	!	!	!	!	!	!LO:DY:a	!	!	!	!	!	!	!
8f/J	.	8dd/J	.	8G#\	cum	.	8f\	cum	.	rfz	8b\	cum	.	8dd\	cum	-fi-	.
4f/	.	4dd/	.	8G#\	ju-	.	8f\	ju-	.	.	8b\	ju-	.	8dd\	ju-	-ce-	.
.	.	.	.	8G#\	-di-	.	8f\	-di-	.	.	8b\	-di-	.	8dd\	-di-	-ris]]	.
*v	*v	*	*	*	*	*	*	*	*	*	*	*	*	*	*	*	*
*	*v	*v	*	*	*	*	*	*	*	*	*	*	*	*	*	*
!	!	!LO:LB:g=original	!	!	!	!	!	!	!	!	!	!	!	!	!
=24	=24	=24	=24	=24	=24	=24	=24	=24	=24	=24	=24	=24	=24	=24	=24
[4Gn\ [4e	4b-X/ 4dd	4Gn\	-ca-	.	4e\	-ca-	.	.	4b-X/	-ca-	.	4dd\	-ca-	.	.
4G\] 4e]	4a/ 4cc#X	4G\	-ris	.	4e\	-ris	.	.	4a/	-ris	.	4cc#X\	-ris	.	.
4r	4r	4r	.	.	4r	.	.	.	4r	.	.	4r	.	.	.
=25	=25	=25	=25	=25	=25	=25	=25	=25	=25	=25	=25	=25	=25	=25	=25
*^	*^	*	*	*	*	*	*	*	*	*	*	*	*	*	*
!	!	!	!	!	!	!LO:DY:a	!	!	!	!LO:DY:a	!	!	!	!	!	!	!LO:DY:a:t=fr
4.F\ 4.d	4.ryy	4.dd/	2.a\	4.F\	ut	ff	4.d\	ut	.	f	4.a/	et	f	4.dd\	ut	.	f
8ryy	8E\L 8c#X	8ee/L	.	8E\	ju-	.	8c#X\	ju-	.	.	8a/	ju-	.	8ee\	ju-	.	.
4d/	8D\	8ff/	.	8D\	-sti-	.	8d\	-sti-	.	.	8a/	-sti-	.	8ff\	-sti-	.	.
.	8F\J	8dd/J	.	8F\	-fi-	.	8d\	-fi-	.	.	8a/	-fi-	.	8dd\	-fi-	.	.
*	*	*v	*v	*	*	*	*	*	*	*	*	*	*	*	*	*	*
!	!	!	!	!	!	!	!	!	!	!LO:LB:g=original	!	!	!LO:LB:g=original	!	!	!
=26	=26	=26	=26	=26	=26	=26	=26	=26	=26	=26	=26	=26	=26	=26	=26	=26
4G\ 4d	4ryy	4f/ 4b	4G\	-ce-	.	4d\	-ce-	.	.	4f/	-ce-	.	4b\	-ce-	.	.
4A\ 4c	4ryy	4e/ 4cc	4A\	-ris	.	4cn\	-ris	.	.	4e/	-ris	.	4cc\	-ris	.	.
4d/	8F\L	8a/L 8dd	8F\	in	.	8A\	in	.	.	8a/	in	.	8dd\	in	.	.
.	8D\J	8ff/J	8D\	ser-	.	8d\	ser-	.	.	8a/	ser-	.	8ff\	ser-	.	.
!	!	!	!	!	!	!LO:LB:g=original	!	!	!	!	!	!	!	!	!	!
=27	=27	=27	=27	=27	=27	=27	=27	=27	=27	=27	=27	=27	=27	=27	=27	=27
!	!	!	!	!	!	!	!	!	!	!	!	!LO:DY:a:t=fr	!	!	!	!
2d/	4.G\	2f/ 2b	4.G\	-mo-	.	4.d\	-mo-	.	.	4.f/	-mo-	f	4.b\	-mo-	.	.
.	8G#X\	.	8G#X\	-ni-	.	8d\	-ni-	.	.	8f/	-ni-	.	8b\	-ni-	.	.
!	!	!	!	!	!	!LO:N:vis=8	!	!	!	!	!	!	!	!	!	!
4c/	4A\	4e/ 4cc	4A\	-bus	.	4c\	-bus	.	.	4e/	-bus	.	4cc\	-bus	.	.
!LO:LB:g=original	!	!LO:LB:g=original	!LO:PB:g=original	!	!	!	!	!	!	!	!	!	!	!	!	!
=28	=28	=28	=28	=28	=28	=28	=28	=28	=28	=28	=28	=28	=28	=28	=28	=28
*	*	*^	*	*	*	*	*	*	*	*	*	*	*	*	*	*
2.F/	2.F\	2.dd/	2.a\	2.F^\	tu-	.	2.A^/	tu-	.	.	2.a/	tu-	.	(2.dd\	tu-	.	.
*v	*v	*	*	*	*	*	*	*	*	*	*	*	*	*	*	*	*
*	*v	*v	*	*	*	*	*	*	*	*	*	*	*	*	*	*
=29	=29	=29	=29	=29	=29	=29	=29	=29	=29	=29	=29	=29	=29	=29	=29
4E\ 4B	4g#X/ 4ee	4E\	-is	.	4B\	-is	.	.	4g#X/	-is	.	4ee\)	-is,	.	.
4r	4r	4r	.	.	4r	.	.	.	4r	.	.	4r	.	.	.
8r	8r	8r	.	.	8r	.	.	.	8r	.	.	8r	.	.	.
!	!	!	!	!LO:DY:a	!	!	!	!LO:DY:a	!	!	!LO:DY:a	!	!	!	!LO:DY:a
8B\ 8d	8gn/ 8ffn	8B\	et	ff	8d\	et	.	f	8gn/	et	f	8ff\	et	.	f
=30	=30	=30	=30	=30	=30	=30	=30	=30	=30	=30	=30	=30	=30	=30	=30
*	*^	*	*	*	*	*	*	*	*	*	*	*	*	*	*
4B\ 4d	4ff/	2g\	4B\	vin-	.	4d\	vin-	.	.	4g/	vin-	.	4ff\	vin-	.	.
4c\	4ee/	.	4c\	-cas	.	4c\	-cas	.	.	4g/	-cas	.	4ee\	-cas	.	.
!	!	!	!LO:N:vis=4	!	!	!	!	!	!	!	!	!	!	!	!	!
8r	8r	8ryy	8r	.	.	4B\	et	.	.	8r	.	.	8r	.	.	.
!	!	!	!	!	!	!LO:N:vis=4	!	!	!	!	!	!	!	!	!	!
8G#X\ 8B	8e/ 8dd	8ryy	8G#X\	et	.	.	.	.	.	8e/	et	.	8dd\	et	.	.
*	*v	*v	*	*	*	*	*	*	*	*	*	*	*	*	*	*
=31	=31	=31	=31	=31	=31	=31	=31	=31	=31	=31	=31	=31	=31	=31	=31
4G#X\ 4B	4e/ 4dd	4G#X\	vin-	.	4B\	vin-	.	.	4e/	vin-	.	4dd\	vin-	.	.
4A\	4e/ 4cc	4A\	-cas,	.	4A\	-cas	.	.	4e/	-cas	.	4cc\	-cas	.	.
!	!	!	!	!	!	!	!	!	!LO:TX:a:t=N.S.	!	!	!	!	!	!
4r	4r	4r	.	.	4r	.	.	.	4r	.	.	4r	.	.	.
!	!	!	!	!	!	!	!	!	!LO:PB:g=original	!	!	!LO:PB:g=original	!	!	!
=32	=32	=32	=32	=32	=32	=32	=32	=32	=32	=32	=32	=32	=32	=32	=32
*	*^	*	*	*	*	*	*	*	*	*	*	*	*	*	*
4Gn\ 4e	4cc#X/	2.a\	4G\	et	.	4e\	et	[[cum	.	4a/	et	.	4cc#X\	et	.	.
4F\ 4d	4dd/	.	4F\	vin-	.	4d\	vin-	ju-	.	4a/	vin-	.	4dd\	vin-	.	.
4E\ 4c#X	4ee/	.	4E\	-cas	.	4c#X\	-cas	-di]]	.	4a/	-cas	.	4ee\	-cas	.	.
=33	=33	=33	=33	=33	=33	=33	=33	=33	=33	=33	=33	=33	=33	=33	=33	=33
4D\ 4d	4ff/	2.a\	4D\	cum	.	4d\	cum	.	.	4a/	cum	.	4ff\	cum	.	.
4E\ 4c#X	4ee/	.	4E\	ju-	.	4c#X\	ju-	.	.	4a/	ju-	.	4ee\	ju-	.	.
4F\ 4d	4dd/	.	4F\	-di-	.	4d\	-di-	.	.	4a/	-di-	.	4dd\	-di-	.	.
*	*v	*v	*	*	*	*	*	*	*	*	*	*	*	*	*	*
!	!	!LO:LB:g=original	!	!	!	!	!	!	!	!	!	!	!	!	!
=34	=34	=34	=34	=34	=34	=34	=34	=34	=34	=34	=34	=34	=34	=34	=34
4G\	2.e/ 2.g 2.cc	(4G\	-ca-	.	(2.e\	-ca-	.	.	(2.g/	-ca-	.	(2.cc\	-ca-	.	.
4E\	.	4E\	.	.	.	.	.	.	.	.	.	.	.	.	.
4C\	.	4C/)	.	.	.	.	.	.	.	.	.	.	.	.	.
!LO:LB:g=original	!LO:LB:g=original	!	!	!	!	!	!	!	!	!	!	!	!	!	!
=35	=35	=35	=35	=35	=35	=35	=35	=35	=35	=35	=35	=35	=35	=35	=35
*	*^	*	*	*	*	*	*	*	*	*	*	*	*	*	*
2.GG\ 2.G	4cc/	2d\	2.GG/	.	.	2.d\)	-[[ca]]-	.	.	2g/	.	.	4cc\	.	.	.
.	2b/	.	.	.	.	.	.	.	.	.	.	.	2b\)	.	.	.
.	.	4d\ 4f	.	.	.	.	.	.	.	4f/	.	.	.	.	.	.
*	*v	*v	*	*	*	*	*	*	*	*	*	*	*	*	*	*
=36	=36	=36	=36	=36	=36	=36	=36	=36	=36	=36	=36	=36	=36	=36	=36
2C\ 2G	2e\ 2cc	2C/	-ris.	.	2c\	-ris.	.	.	2e/)	ris.	.	2cc\	-ris.	.	.
4r	4r	4r	.	.	4r	.	.	.	4r	.	.	4r	.	.	.
==	==	==	==	==	==	==	==	==	==	==	==	==	==	==	==
*-	*-	*-	*-	*-	*-	*-	*-	*-	*-	*-	*-	*-	*-	*-	*-
!!!system-decoration: [(g1)][(g2)]
!!!RDF**kern: >= above
!!!RDF**kern: <= below
!!!ENC: Anna Matuszewska
!!!END: 2021-01-05
!!!ENC: Krzysztof Stępień
!!!END: 2020-12-31
!!!YEC: Copyright 2022 Narodowy Instytut Fryderyka Chopina (https://polishscores.org)
!!!YEM: License CC-BY-4.0 (https://creativecommons.org/licenses/by/4.0)
